X:330
T:Nun danket alle Gott
C:BWV 252
L:1/8
M:4/4
K:Gmaj
V:1
d2|d2 d2 e2 e2|Hd6 B2|c2 B2 A2 Bc|A4 HG2:|
A2|A2 A2 B2 B2|HA6 A2|B^c d2 d2 c2|Hd6 d2|
e2 d2 c2 B2|Hc6 B2|A2 Bc A2- AG|HG6|]
V:4 clef=bass
G,2|"6"F,2 G,2 C,D, "6"E,C,|HG,6 G,2|"2"G,F, G,2 D,C, "6"B,,E,|"6"C,B,,/2C,/2 D,2 HG,,2:|
D,E,|"6"F,E, "-5"F,D, G,,A,, "6"B,,C,|HD,6 D,2|G,2"6"F,B, G,E, "#"A,A,,|HD,6 G,2|
C,2 G,=F, "6""5"E,F, "b"D,E,|HA,,6"6"B,,G,,|D,F, G,C, D,2"7"D,,2|HG,,6|]

